svg/brush_outline.svg

<svg xmlns="http://www.w3.org/2000/svg" viewBox="0 0 24 24"><path d="M7 16c.55 0 1 .45 1 1 0 1.1-.9 2-2 2-.17 0-.33 0-.5-.05.31-.55.5-1.21.5-1.95 0-.55.45-1 1-1M18.67 3c-.26 0-.51.1-.71.29L9 12.25 11.75 15l8.96-8.96c.39-.39.39-1.04 0-1.41l-1.34-1.34c-.2-.2-.45-.29-.7-.29M7 14c-1.66 0-3 1.34-3 3 0 1.31-1.16 2-2 2 .92 1.22 2.5 2 4 2 2.21 0 4-1.79 4-4 0-1.66-1.34-3-3-3"/></svg>

<svg xmlns="http://www.w3.org/2000/svg" id="mdi-brush-outline" viewBox="0 0 24 24"><path d="M7 16C7.55 16 8 16.45 8 17C8 18.1 7.1 19 6 19C5.83 19 5.67 19 5.5 18.95C5.81 18.4 6 17.74 6 17C6 16.45 6.45 16 7 16M18.67 3C18.41 3 18.16 3.1 17.96 3.29L9 12.25L11.75 15L20.71 6.04C21.1 5.65 21.1 5 20.71 4.63L19.37 3.29C19.17 3.09 18.92 3 18.67 3M7 14C5.34 14 4 15.34 4 17C4 18.31 2.84 19 2 19C2.92 20.22 4.5 21 6 21C8.21 21 10 19.21 10 17C10 15.34 8.66 14 7 14Z" /></svg>
